src/assets/turnaroundtimeIcon.svg

<svg width="56" height="56" viewBox="0 0 56 56" fill="none" xmlns="http://www.w3.org/2000/svg">
<g clip-path="url(#clip0_283_6580)">
<path opacity="0.3" fill-rule="evenodd" clip-rule="evenodd" d="M28 12.25C19.3016 12.25 12.25 19.3016 12.25 28C12.25 36.6984 19.3016 43.75 28 43.75V12.25Z" fill="#FF2B2B"/>
<path fill-rule="evenodd" clip-rule="evenodd" d="M29.75 26.2505H35C35.966 26.2505 36.75 27.0341 36.75 28.0001C36.75 28.9661 35.966 29.7496 35 29.7496H28C27.034 29.7496 26.25 28.9661 26.25 28.0001V17.5001C26.25 16.5341 27.034 15.7505 28 15.7505C28.966 15.7505 29.75 16.5341 29.75 17.5001V26.2505Z" fill="#B30000"/>
<path fill-rule="evenodd" clip-rule="evenodd" d="M34.2202 40.5441C32.346 41.4763 30.2335 42 28 42C20.2736 42 14.0002 35.7266 14.0002 28.0002C14.0002 20.2739 20.2736 14.0005 28 14.0005C35.7263 14.0005 41.9998 20.2739 41.9998 28.0002C41.9998 31.5843 40.6502 34.8554 38.4314 37.3331C37.7876 38.0527 37.8486 39.1601 38.5682 39.8039C39.2878 40.4486 40.3952 40.3876 41.039 39.668C43.813 36.5702 45.5002 32.4811 45.5002 28.0002C45.5002 18.3415 37.6587 10.5 28 10.5C18.3413 10.5 10.4998 18.3415 10.4998 28.0002C10.4998 37.6589 18.3413 45.5005 28 45.5005C30.7936 45.5005 33.4357 44.8439 35.7795 43.6774C36.6438 43.2472 36.9972 42.1959 36.567 41.3316C36.1368 40.4664 35.0855 40.114 34.2202 40.5441Z" fill="#B30000"/>
<path fill-rule="evenodd" clip-rule="evenodd" d="M36.75 42.1103C36.75 41.5048 36.4368 40.9421 35.9214 40.6227C35.406 40.3034 34.7629 40.2736 34.2204 40.544C32.3461 41.4759 30.2339 42 28 42C25.7661 42 23.6539 41.4759 21.7796 40.544C21.2371 40.2736 20.594 40.3034 20.0786 40.6227C19.5632 40.9421 19.25 41.5048 19.25 42.1103C19.25 42.1103 19.25 44.8551 19.25 47.25C19.25 50.1497 21.6003 52.5 24.5 52.5C26.6376 52.5 29.3624 52.5 31.5 52.5C34.3997 52.5 36.75 50.1497 36.75 47.25C36.75 44.8551 36.75 42.1103 36.75 42.1103ZM22.75 44.6968V47.25C22.75 48.2169 23.5331 49 24.5 49C26.6376 49 29.3624 49 31.5 49C32.4669 49 33.25 48.2169 33.25 47.25V44.6968C31.5927 45.2183 29.8287 45.5 28 45.5C26.1713 45.5 24.4073 45.2183 22.75 44.6968ZM34.2204 15.456C34.7629 15.7264 35.406 15.6966 35.9214 15.3773C36.4368 15.0579 36.75 14.4952 36.75 13.8897C36.75 13.8897 36.75 11.1449 36.75 8.75C36.75 5.85025 34.3997 3.5 31.5 3.5C29.3624 3.5 26.6376 3.5 24.5 3.5C21.6003 3.5 19.25 5.85025 19.25 8.75C19.25 11.1449 19.25 13.8897 19.25 13.8897C19.25 14.4952 19.5632 15.0579 20.0786 15.3773C20.594 15.6966 21.2371 15.7264 21.7796 15.456C23.6539 14.5241 25.7661 14 28 14C30.2339 14 32.3461 14.5241 34.2204 15.456ZM33.25 11.3032V8.75C33.25 7.78312 32.4669 7 31.5 7C29.3624 7 26.6376 7 24.5 7C23.5331 7 22.75 7.78312 22.75 8.75V11.3032C24.4073 10.7817 26.1713 10.5 28 10.5C29.8287 10.5 31.5927 10.7817 33.25 11.3032Z" fill="#B30000"/>
</g>
<defs>
<clipPath id="clip0_283_6580">
<rect width="56" height="56" fill="white"/>
</clipPath>
</defs>
</svg>

<svg width="56" height="56" viewBox="0 0 56 56" fill="none" xmlns="http://www.w3.org/2000/svg">
    <g clip-path="url(#rerxo7iw4a)" fill-rule="evenodd" clip-rule="evenodd">
        <path opacity=".3" d="M28 12.25c-8.698 0-15.75 7.052-15.75 15.75S19.302 43.75 28 43.75v-31.5z" fill="red"/>
        <path d="M29.75 26.25H35a1.75 1.75 0 0 1 0 3.5h-7A1.75 1.75 0 0 1 26.25 28V17.5a1.75 1.75 0 0 1 3.5 0v8.75z" fill="#004498"/>
        <path d="M34.22 40.544A13.93 13.93 0 0 1 28 42c-7.726 0-14-6.274-14-14s6.274-14 14-14 14 6.274 14 14c0 3.584-1.35 6.855-3.569 9.333a1.75 1.75 0 0 0 2.608 2.335A17.433 17.433 0 0 0 45.5 28c0-9.659-7.841-17.5-17.5-17.5-9.659 0-17.5 7.841-17.5 17.5 0 9.659 7.841 17.5 17.5 17.5 2.794 0 5.436-.656 7.78-1.823a1.75 1.75 0 0 0-1.56-3.133z" fill="#004498"/>
        <path d="M36.75 42.11a1.75 1.75 0 0 0-2.53-1.566A13.933 13.933 0 0 1 28 42c-2.234 0-4.346-.524-6.22-1.456a1.748 1.748 0 0 0-2.53 1.566v5.14c0 2.9 2.35 5.25 5.25 5.25h7c2.9 0 5.25-2.35 5.25-5.25v-5.14zm-14 2.587v2.553c0 .967.783 1.75 1.75 1.75h7a1.75 1.75 0 0 0 1.75-1.75v-2.553A17.465 17.465 0 0 1 28 45.5c-1.829 0-3.593-.282-5.25-.803zm11.47-29.241a1.748 1.748 0 0 0 2.53-1.566V8.75c0-2.9-2.35-5.25-5.25-5.25h-7a5.25 5.25 0 0 0-5.25 5.25v5.14a1.75 1.75 0 0 0 2.53 1.566A13.933 13.933 0 0 1 28 14c2.234 0 4.346.524 6.22 1.456zm-.97-4.153V8.75A1.75 1.75 0 0 0 31.5 7h-7a1.75 1.75 0 0 0-1.75 1.75v2.553A17.464 17.464 0 0 1 28 10.5c1.829 0 3.593.282 5.25.803z" fill="#004498"/>
    </g>
    <defs>
        <clipPath id="rerxo7iw4a">
            <path fill="#fff" d="M0 0h56v56H0z"/>
        </clipPath>
    </defs>
</svg>
